X: 14
M:2/4
L:1/8
K:G
g/f/e/d/ .Bz | B/c/d .Az | g/f/e/d/ BG | B/c/d .Gz ::
.G.G (3B/c/d/ z | .A.A (3B/c/d/ z | GG (3B/c/d/ z | B/c/d Gz ::
g/f/e/d/ c/B/A/G/ | B/c/d/B/ A/B/c/A/ | g/f/e/d/ c/B/A/G/ |


